src/scalable/apps/com.github.louis77.tuner.svg

<svg width="64" height="64" image-rendering="optimizeSpeed" xmlns="http://www.w3.org/2000/svg"><rect x="5" y="5" width="54" height="54" rx="27" ry="27" fill="#dd3f80"/><rect x="12.827" y="16" width="38" height="14" rx="3.145" ry="3.145" fill="#fff"/><g fill="none" stroke-miterlimit="10"><path class="st8" d="M15.443 20.238v5.357m2.922-5.357v5.357m3.409-6.818v8.279m3.409-6.818v5.357m3.408-5.357v5.357M32 18.777v8.279m3.409-6.818v5.357m3.408-5.357v5.357m3.409-6.818v8.279m3.409-6.818v5.357m2.922-5.357v5.357" stroke="#abacae" stroke-width=".87"/><path class="st9" stroke="#de3e80" stroke-width="1.067" d="M27.13 16.83v12.66"/></g><circle class="st10" cx="32" cy="42" r="8" fill="#f0f0f0"/><rect x="31" y="35" width="2" height="5" rx="1" ry="1" opacity=".15" style="paint-order:stroke fill markers"/><rect x="10" y="36" width="12" height="2" rx="1" ry="1" fill="#1a1a1a" style="paint-order:stroke fill markers"/><rect x="12" y="46" width="10" height="2" rx="1" ry="1" fill="#1a1a1a" style="paint-order:stroke fill markers"/><rect x="10" y="41" width="10" height="2" rx="1" ry="1" fill="#1a1a1a" style="paint-order:stroke fill markers"/><rect transform="scale(-1 1)" x="-54" y="36" width="12" height="2" rx="1" ry="1" fill="#1a1a1a" style="paint-order:stroke fill markers"/><rect transform="scale(-1 1)" x="-52" y="46" width="10" height="2" rx="1" ry="1" fill="#1a1a1a" style="paint-order:stroke fill markers"/><rect transform="scale(-1 1)" x="-54" y="41" width="10" height="2" rx="1" ry="1" fill="#1a1a1a" style="paint-order:stroke fill markers"/></svg>

<svg width="64" height="64" image-rendering="optimizeSpeed" xmlns="http://www.w3.org/2000/svg"><rect x="5" y="5" width="54" height="54" rx="27" ry="27" fill="#dd3f80"/><rect x="12.827" y="16" width="38" height="14" rx="3.145" ry="3.145" fill="#fff"/><g fill="none" stroke-miterlimit="10"><g stroke="#abacae" stroke-width=".87"><path class="st8" d="M15.443 20.238v5.357M18.365 20.238v5.357M21.774 18.777v8.279M25.183 20.238v5.357M28.591 20.238v5.357M32 18.777v8.279M35.409 20.238v5.357M38.817 20.238v5.357M42.226 18.777v8.279M45.635 20.238v5.357M48.557 20.238v5.357"/></g><path class="st9" stroke="#de3e80" stroke-width="1.067" d="M27.13 16.83v12.66"/></g><circle class="st10" cx="32" cy="42" r="8" fill="#f0f0f0"/><rect x="31" y="35" width="2" height="5" rx="1" ry="1" opacity=".15" style="paint-order:stroke fill markers"/><rect x="10" y="36" width="12" height="2" rx="1" ry="1" fill="#1a1a1a" style="paint-order:stroke fill markers"/><rect x="12" y="46" width="10" height="2" rx="1" ry="1" fill="#1a1a1a" style="paint-order:stroke fill markers"/><rect x="10" y="41" width="10" height="2" rx="1" ry="1" fill="#1a1a1a" style="paint-order:stroke fill markers"/><rect transform="scale(-1 1)" x="-54" y="36" width="12" height="2" rx="1" ry="1" fill="#1a1a1a" style="paint-order:stroke fill markers"/><rect transform="scale(-1 1)" x="-52" y="46" width="10" height="2" rx="1" ry="1" fill="#1a1a1a" style="paint-order:stroke fill markers"/><rect transform="scale(-1 1)" x="-54" y="41" width="10" height="2" rx="1" ry="1" fill="#1a1a1a" style="paint-order:stroke fill markers"/></svg>
